assets/report/china-popculture/A.svg

<svg fill="none" height="19" viewBox="0 0 19 19" width="19" xmlns="http://www.w3.org/2000/svg"><path d="m9.38867 18.4697c4.82523 0 8.81543-3.9902 8.81543-8.8154 0-4.83399-3.9902-8.815433-8.82422-8.815433-4.82519 0-8.806638 3.981443-8.806638 8.815433 0 4.8252 3.990238 8.8154 8.815428 8.8154zm0-1.1426c-4.2539 0-7.67285-3.4277-7.67285-7.6728 0-4.25391 3.41895-7.68164 7.66406-7.68164 4.25392 0 7.68162 3.42773 7.69042 7.68164 0 4.2451-3.4277 7.6728-7.68163 7.6728zm-2.8916-3.5595c.25488 0 .42188-.1143.52734-.4395l.7295-2.039h3.25199l.7295 2.039c.1054.3252.2724.4395.5361.4395.2988 0 .501-.1934.501-.4658 0-.1055-.0176-.2022-.0704-.3516l-2.5751-6.85547c-.1231-.35157-.38677-.52735-.74712-.52735-.36914 0-.62402.17578-.75586.52735l-2.5664 6.85547c-.05274.1494-.07032.2461-.07032.3516 0 .2812.19336.4658.50977.4658zm1.54688-3.3223 1.30078-3.63866h.07031l1.30076 3.63866z" fill="#111"/></svg>

<svg width="19" height="19" viewBox="0 0 19 19" fill="none" xmlns="http://www.w3.org/2000/svg">
<path d="M9.38867 18.4697C14.2139 18.4697 18.2041 14.4795 18.2041 9.6543C18.2041 4.82031 14.2139 0.838867 9.37988 0.838867C4.55469 0.838867 0.573242 4.82031 0.573242 9.6543C0.573242 14.4795 4.56348 18.4697 9.38867 18.4697ZM9.38867 17.3271C5.13477 17.3271 1.71582 13.8994 1.71582 9.6543C1.71582 5.40039 5.13477 1.97266 9.37988 1.97266C13.6338 1.97266 17.0615 5.40039 17.0703 9.6543C17.0703 13.8994 13.6426 17.3271 9.38867 17.3271ZM6.49707 13.7676C6.75195 13.7676 6.91895 13.6533 7.02441 13.3281L7.75391 11.2891H11.0059L11.7354 13.3281C11.8408 13.6533 12.0078 13.7676 12.2715 13.7676C12.5703 13.7676 12.7725 13.5742 12.7725 13.3018C12.7725 13.1963 12.7549 13.0996 12.7021 12.9502L10.127 6.09473C10.0039 5.74316 9.74023 5.56738 9.37988 5.56738C9.01074 5.56738 8.75586 5.74316 8.62402 6.09473L6.05762 12.9502C6.00488 13.0996 5.9873 13.1963 5.9873 13.3018C5.9873 13.583 6.18066 13.7676 6.49707 13.7676ZM8.04395 10.4453L9.34473 6.80664H9.41504L10.7158 10.4453H8.04395Z" fill="#111111"/>
</svg>
